packages/landing-ui/public/cactus-logo.svg

<svg width="73" height="42" viewBox="1.4397097826004028 10.432700157165527 71.26408386230469 29.771297454833984" fill="none" xmlns="http://www.w3.org/2000/svg">
<path opacity="0.99" d="M34.1363 15.5364C34.3967 15.0697 34.656 14.5664 34.8786 14.0643C35.1013 13.5622 35.0623 13.4901 34.7647 13.353C34.4671 13.2158 34.1655 13.5371 33.9715 13.7817C33.7966 13.9492 33.6308 14.1258 33.4747 14.3109C33.0191 14.9855 32.5624 15.6234 32.1257 16.3157L27.4184 23.4881C25.4766 26.4652 23.5169 29.4613 21.5384 32.4396C21.5133 32.4785 21.4773 32.509 21.4349 32.5273C21.3925 32.5456 21.3455 32.551 21.3001 32.5426C21.2547 32.5342 21.2128 32.5126 21.1797 32.4803C21.1466 32.4481 21.1238 32.4067 21.1143 32.3615L21.104 32.0319C21.1074 30.9684 21.0169 29.2479 20.895 28.2802L20.2417 16.1826L20.0156 11.8815C19.9875 11.5049 19.9206 11.1323 19.8158 10.7695C19.7908 10.6868 19.7445 10.6121 19.6815 10.553C19.6185 10.4939 19.5411 10.4524 19.4569 10.4327C19.289 10.5158 19.1567 10.6567 19.0844 10.8296C18.9909 11.0854 18.9315 11.3524 18.9075 11.6236C18.8595 12.4318 18.7937 13.2589 18.7645 14.0849L18.5146 23.0946L18.192 33.885L17.6139 34.1602L17.4628 34.0184C16.934 33.522 16.424 33.0433 15.8952 32.5469L8.93827 26.4077L3.11235 21.259C2.81051 20.9943 2.48394 20.7592 2.13709 20.5569C2.0461 20.5051 1.94028 20.4855 1.83672 20.5011C1.73317 20.5168 1.63788 20.5669 1.56618 20.6432C1.49448 20.7196 1.45055 20.8179 1.44147 20.9222C1.43238 21.0266 1.45868 21.1309 1.51611 21.2185C1.69327 21.534 1.9054 21.8286 2.14853 22.0966L7.72437 28.0415C9.83119 30.3392 11.9014 32.638 14.0615 34.8789C15.0126 35.9313 16.0486 36.9038 17.159 37.7865C17.7399 38.2455 18.3667 38.6432 19.0294 38.9733C19.5314 39.1956 19.7156 39.2263 20.1237 38.7916C20.8861 38.0746 21.6031 37.3107 22.2705 36.5046C22.5189 36.24 22.7673 35.9754 22.8835 35.5866C23.5974 34.5738 24.2612 33.5259 24.8751 32.4429C27.9733 26.7704 31.0603 21.1349 34.1363 15.5364Z" fill="#27AE60"></path>
<path d="M27.4138 36.004C27.4138 35.364 27.5258 34.788 27.7498 34.276C27.9738 33.756 28.2778 33.312 28.6618 32.944C29.0458 32.576 29.4938 32.296 30.0058 32.104C30.5178 31.904 31.0618 31.804 31.6378 31.804C32.0938 31.804 32.4978 31.848 32.8498 31.936C33.2098 32.024 33.5178 32.124 33.7738 32.236C34.0698 32.364 34.3258 32.504 34.5418 32.656L33.2818 34.876C33.1538 34.78 33.0138 34.688 32.8618 34.6C32.7258 34.536 32.5618 34.476 32.3698 34.42C32.1858 34.356 31.9738 34.324 31.7338 34.324C31.4858 34.324 31.2578 34.368 31.0498 34.456C30.8418 34.544 30.6578 34.664 30.4978 34.816C30.3458 34.968 30.2258 35.148 30.1378 35.356C30.0498 35.556 30.0058 35.772 30.0058 36.004C30.0058 36.236 30.0498 36.456 30.1378 36.664C30.2338 36.864 30.3618 37.04 30.5218 37.192C30.6818 37.344 30.8698 37.464 31.0858 37.552C31.3018 37.64 31.5378 37.684 31.7938 37.684C32.0498 37.684 32.2778 37.652 32.4778 37.588C32.6778 37.524 32.8458 37.452 32.9818 37.372C33.1418 37.284 33.2818 37.18 33.4018 37.06L34.6618 39.28C34.4458 39.456 34.1898 39.612 33.8938 39.748C33.6378 39.86 33.3298 39.964 32.9698 40.06C32.6098 40.156 32.1978 40.204 31.7338 40.204C31.1098 40.204 30.5338 40.104 30.0058 39.904C29.4778 39.696 29.0218 39.408 28.6378 39.04C28.2538 38.672 27.9538 38.232 27.7378 37.72C27.5218 37.2 27.4138 36.628 27.4138 36.004ZM38.3409 31.996H40.2609L43.2969 40H40.7769L40.5129 39.28H38.0889L37.8249 40H35.3049L38.3409 31.996ZM39.8409 37.516L39.3009 36.112L38.7609 37.516H39.8409ZM44.2966 36.004C44.2966 35.364 44.4086 34.788 44.6326 34.276C44.8566 33.756 45.1606 33.312 45.5446 32.944C45.9286 32.576 46.3766 32.296 46.8886 32.104C47.4006 31.904 47.9446 31.804 48.5206 31.804C48.9766 31.804 49.3806 31.848 49.7326 31.936C50.0926 32.024 50.4006 32.124 50.6566 32.236C50.9526 32.364 51.2086 32.504 51.4246 32.656L50.1646 34.876C50.0366 34.78 49.8966 34.688 49.7446 34.6C49.6086 34.536 49.4446 34.476 49.2526 34.42C49.0686 34.356 48.8566 34.324 48.6166 34.324C48.3686 34.324 48.1406 34.368 47.9326 34.456C47.7246 34.544 47.5406 34.664 47.3806 34.816C47.2286 34.968 47.1086 35.148 47.0206 35.356C46.9326 35.556 46.8886 35.772 46.8886 36.004C46.8886 36.236 46.9326 36.456 47.0206 36.664C47.1166 36.864 47.2446 37.04 47.4046 37.192C47.5646 37.344 47.7526 37.464 47.9686 37.552C48.1846 37.64 48.4206 37.684 48.6766 37.684C48.9326 37.684 49.1606 37.652 49.3606 37.588C49.5606 37.524 49.7286 37.452 49.8646 37.372C50.0246 37.284 50.1646 37.18 50.2846 37.06L51.5446 39.28C51.3286 39.456 51.0726 39.612 50.7766 39.748C50.5206 39.86 50.2126 39.964 49.8526 40.06C49.4926 40.156 49.0806 40.204 48.6166 40.204C47.9926 40.204 47.4166 40.104 46.8886 39.904C46.3606 39.696 45.9046 39.408 45.5206 39.04C45.1366 38.672 44.8366 38.232 44.6206 37.72C44.4046 37.2 44.2966 36.628 44.2966 36.004ZM53.9037 34.096H52.4277V31.996H58.0197V34.096H56.5437V40H53.9037V34.096ZM62.7136 40.204C62.2096 40.204 61.7536 40.14 61.3456 40.012C60.9376 39.884 60.5896 39.692 60.3016 39.436C60.0136 39.18 59.7896 38.856 59.6296 38.464C59.4776 38.072 59.4016 37.612 59.4016 37.084V31.996H61.9576V36.976C61.9576 37.256 62.0136 37.472 62.1256 37.624C62.2456 37.768 62.4416 37.84 62.7136 37.84C62.9856 37.84 63.1776 37.768 63.2896 37.624C63.4096 37.472 63.4696 37.256 63.4696 36.976V31.996H66.0376V37.084C66.0376 37.612 65.9576 38.072 65.7976 38.464C65.6456 38.856 65.4216 39.18 65.1256 39.436C64.8376 39.692 64.4896 39.884 64.0816 40.012C63.6736 40.14 63.2176 40.204 62.7136 40.204ZM67.6278 37.516C67.8038 37.572 67.9878 37.616 68.1798 37.648C68.3398 37.688 68.5198 37.72 68.7198 37.744C68.9278 37.768 69.1358 37.78 69.3438 37.78C69.7118 37.78 69.8958 37.644 69.8958 37.372C69.8958 37.268 69.8398 37.164 69.7278 37.06C69.6158 36.948 69.4718 36.828 69.2958 36.7C69.1278 36.564 68.9438 36.416 68.7438 36.256C68.5518 36.096 68.3678 35.912 68.1918 35.704C68.0238 35.496 67.8838 35.264 67.7718 35.008C67.6598 34.744 67.6038 34.444 67.6038 34.108C67.6038 33.732 67.6718 33.4 67.8078 33.112C67.9438 32.824 68.1318 32.584 68.3718 32.392C68.6118 32.2 68.8918 32.056 69.2118 31.96C69.5398 31.856 69.8878 31.804 70.2558 31.804C70.4478 31.804 70.6398 31.816 70.8318 31.84C71.0238 31.856 71.1958 31.872 71.3478 31.888C71.5238 31.912 71.6958 31.936 71.8638 31.96V34.204C71.7998 34.196 71.7278 34.188 71.6478 34.18C71.5838 34.172 71.5118 34.164 71.4318 34.156C71.3518 34.148 71.2678 34.144 71.1798 34.144C71.1318 34.144 71.0718 34.148 70.9998 34.156C70.9278 34.156 70.8598 34.164 70.7958 34.18C70.7318 34.196 70.6758 34.224 70.6278 34.264C70.5798 34.304 70.5558 34.36 70.5558 34.432C70.5558 34.496 70.6078 34.576 70.7118 34.672C70.8238 34.768 70.9558 34.88 71.1078 35.008C71.2678 35.136 71.4398 35.284 71.6238 35.452C71.8158 35.62 71.9878 35.812 72.1398 36.028C72.2998 36.244 72.4318 36.488 72.5358 36.76C72.6478 37.032 72.7038 37.336 72.7038 37.672C72.7038 38.024 72.6478 38.356 72.5358 38.668C72.4238 38.972 72.2478 39.24 72.0078 39.472C71.7758 39.696 71.4758 39.872 71.1078 40C70.7398 40.136 70.3038 40.204 69.7998 40.204C69.4958 40.204 69.2118 40.188 68.9478 40.156C68.6918 40.132 68.4638 40.1 68.2638 40.06C68.0318 40.02 67.8198 39.972 67.6278 39.916V37.516Z" fill="#687C94"></path>
</svg>

<svg width="73" height="42" viewBox="1.44 10.433 71.264 29.771" fill="none" xmlns="http://www.w3.org/2000/svg"><path opacity=".99" d="M34.136 15.536c.26-.466.52-.97.743-1.472.222-.502.183-.574-.114-.711-.298-.137-.6.184-.794.429-.174.167-.34.344-.496.529-.456.675-.913 1.312-1.35 2.005l-4.707 7.172a1273.837 1273.837 0 01-5.88 8.952.233.233 0 01-.424-.078l-.01-.33c.003-1.064-.087-2.784-.209-3.752l-.653-12.097-.226-4.301a5.474 5.474 0 00-.2-1.112.492.492 0 00-.36-.337.778.778 0 00-.372.397 3.112 3.112 0 00-.177.794c-.047.808-.113 1.635-.142 2.46l-.25 9.01-.323 10.791-.578.275-.151-.142-1.568-1.471-6.957-6.14-5.826-5.148a6.27 6.27 0 00-.975-.702.467.467 0 00-.62.662c.176.315.388.61.632.878l5.575 5.944c2.107 2.298 4.177 4.597 6.338 6.838a25.892 25.892 0 003.097 2.907c.58.46 1.208.857 1.87 1.187.502.223.687.253 1.095-.181.762-.717 1.48-1.481 2.146-2.287.249-.265.497-.53.614-.918a37.85 37.85 0 001.991-3.144 7702.292 7702.292 0 019.261-16.907z" fill="#27AE60"/><path d="M27.414 36.004c0-.64.112-1.216.336-1.728a3.898 3.898 0 012.256-2.172c.512-.2 1.056-.3 1.632-.3.456 0 .86.044 1.212.132.36.088.668.188.924.3.296.128.552.268.768.42l-1.26 2.22a4.24 4.24 0 00-.42-.276 3.407 3.407 0 00-.492-.18 1.933 1.933 0 00-.636-.096c-.248 0-.476.044-.684.132a1.828 1.828 0 00-.552.36 1.68 1.68 0 00-.36.54c-.088.2-.132.416-.132.648 0 .232.044.452.132.66a1.791 1.791 0 001.656 1.02c.256 0 .484-.032.684-.096.2-.064.368-.136.504-.216.16-.088.3-.192.42-.312l1.26 2.22a3.566 3.566 0 01-.768.468 6.522 6.522 0 01-.924.312c-.36.096-.772.144-1.236.144-.624 0-1.2-.1-1.728-.3a4.152 4.152 0 01-1.368-.864 3.91 3.91 0 01-.9-1.32 4.43 4.43 0 01-.324-1.716zm10.927-4.008h1.92L43.297 40h-2.52l-.264-.72h-2.424l-.264.72h-2.52l3.036-8.004zm1.5 5.52l-.54-1.404-.54 1.404h1.08zm4.456-1.512c0-.64.112-1.216.336-1.728a3.898 3.898 0 012.256-2.172c.512-.2 1.056-.3 1.632-.3.456 0 .86.044 1.212.132.36.088.668.188.924.3.296.128.552.268.768.42l-1.26 2.22a4.24 4.24 0 00-.42-.276 3.407 3.407 0 00-.492-.18 1.933 1.933 0 00-.636-.096c-.248 0-.476.044-.684.132a1.828 1.828 0 00-.552.36 1.68 1.68 0 00-.36.54c-.088.2-.132.416-.132.648 0 .232.044.452.132.66a1.791 1.791 0 001.656 1.02c.256 0 .484-.032.684-.096.2-.064.368-.136.504-.216.16-.088.3-.192.42-.312l1.26 2.22a3.566 3.566 0 01-.768.468 6.522 6.522 0 01-.924.312c-.36.096-.772.144-1.236.144-.624 0-1.2-.1-1.728-.3a4.152 4.152 0 01-1.368-.864 3.91 3.91 0 01-.9-1.32 4.43 4.43 0 01-.324-1.716zm9.607-1.908h-1.476v-2.1h5.592v2.1h-1.476V40h-2.64v-5.904zm8.81 6.108c-.504 0-.96-.064-1.368-.192a2.817 2.817 0 01-1.044-.576 2.581 2.581 0 01-.672-.972c-.152-.392-.228-.852-.228-1.38v-5.088h2.556v4.98c0 .28.056.496.168.648.12.144.316.216.588.216.272 0 .464-.072.576-.216.12-.152.18-.368.18-.648v-4.98h2.568v5.088c0 .528-.08.988-.24 1.38a2.413 2.413 0 01-.672.972 2.817 2.817 0 01-1.044.576 4.559 4.559 0 01-1.368.192zm4.914-2.688c.176.056.36.1.552.132.16.04.34.072.54.096.208.024.416.036.624.036.368 0 .552-.136.552-.408 0-.104-.056-.208-.168-.312a3.658 3.658 0 00-.432-.36l-.552-.444a4.495 4.495 0 01-.552-.552 3.041 3.041 0 01-.42-.696 2.285 2.285 0 01-.168-.9c0-.376.068-.708.204-.996.136-.288.324-.528.564-.72.24-.192.52-.336.84-.432a3.434 3.434 0 011.044-.156c.192 0 .384.012.576.036.192.016.364.032.516.048l.516.072v2.244a8.884 8.884 0 00-.216-.024 8.884 8.884 0 00-.216-.024 2.535 2.535 0 00-.252-.012c-.048 0-.108.004-.18.012a.839.839 0 00-.204.024.416.416 0 00-.168.084.207.207 0 00-.072.168c0 .064.052.144.156.24l.396.336c.16.128.332.276.516.444.192.168.364.36.516.576.16.216.292.46.396.732.112.272.168.576.168.912 0 .352-.056.684-.168.996a2.132 2.132 0 01-.528.804c-.232.224-.532.4-.9.528-.368.136-.804.204-1.308.204-.304 0-.588-.016-.852-.048a6.712 6.712 0 01-.684-.096 5.795 5.795 0 01-.636-.144v-2.4z" fill="#687C94"/></svg>
